X:637
T: WENN DU WUESSTEST MEINE SCHMERZEN
N: E0587
O: Europa, Mitteleuropa, Deutschland, Hessen, Wetterau, Langsdorf
R: Liebes - Lied
M: 4/4
L: 1/8
K: Eb
 | E3GB2e2 | edc2B2e2
c2c2B2B2 | A2B2G2z2
E3GB2e2 | edc2B2e2
c2c2B2B2 | A2B2G2z2
e3cB2f2 | e3cd2B2
e3cc2f2 | edecB2A2
G3AB2e2 | edc2B2e2
c2c2B2B2 | A2B2G2z2

